X:186
T:Quindaro Hornpipe
L:1/8
M:C|
K:G
gf | "G"g2G4BG | "D7"FADF "G"G2Bc | "C"dBed cBAG | "D7"FAD4gf |
"G"g2G4BG | "D7"FADF "G"G2AB | "C"cedc "D7"BAGF | "G"G2G2 G2 :|
|: dc | "G"BgBc d2cB | "Am"caAB "D7"c2BA | "G"Bded cBAG | "D7"FAD2 D2ga |
"G"bgfg dgfg | bgfg dgfg | "C"edcB "D7"AGFA | "G"G2B2G2 :|
